X: 1
T:Buy Broom Buzzems
M:3/4
L:1/8
K:G
GBdecA|GBde c2|GBdecA|BGGEc2||A2(AG)FD|GGGBc2|A2 (AG)FD|GBcAG2||
% Output from ABC2Win  Version 2.1 i on 3/3/2000
